assets/payment/banner/logo1.svg

<svg width="104" height="104" viewBox="0 0 104 104" fill="none" xmlns="http://www.w3.org/2000/svg">
<path d="M51.9998 87.0862L61.5505 81.6288L56.4248 77.7753C56.1973 77.6022 56.0125 77.3792 55.8847 77.1235C55.7568 76.8678 55.6893 76.5862 55.6873 76.3003V72.0781C53.2807 72.791 50.719 72.791 48.3123 72.0781V76.3003C48.3104 76.5862 48.2429 76.8678 48.115 77.1235C47.9872 77.3792 47.8024 77.6022 47.5748 77.7753L42.4492 81.6288L51.9998 87.0862Z" fill="white"/>
<path d="M37.25 47.8886L39.0938 49.7323V48.6445C39.0898 48.303 39.1831 47.9674 39.3626 47.6769C39.5422 47.3863 39.8006 47.1528 40.1078 47.0036L47.4828 43.3161C47.8745 43.1129 48.3272 43.0604 48.755 43.1686L63.505 46.8561C63.9047 46.9549 64.2599 47.1847 64.5138 47.5088C64.7678 47.833 64.9059 48.2328 64.9062 48.6445V49.7323L66.75 47.8886V46.8008C66.75 44.3558 65.7787 42.011 64.0499 40.2821C62.321 38.5533 59.9762 37.582 57.5312 37.582H46.4688C44.0238 37.582 41.679 38.5533 39.9501 40.2821C38.2213 42.011 37.25 44.3558 37.25 46.8008V47.8886Z" fill="white"/>
<path d="M61.2188 59.7077V50.0834L48.5338 46.9121L42.7812 49.7884V59.7077C42.7812 62.1527 43.7525 64.4975 45.4814 66.2264C47.2102 67.9552 49.555 68.9265 52 68.9265C54.445 68.9265 56.7898 67.9552 58.5186 66.2264C60.2475 64.4975 61.2188 62.1527 61.2188 59.7077ZM53.8438 52.3327H57.5312V56.0202H53.8438V52.3327ZM50.1562 56.0202H46.4688V52.3327H50.1562V56.0202Z" fill="white"/>
<path d="M13.2812 17.3008C15.3178 17.3008 16.9688 15.6498 16.9688 13.6133C16.9688 11.5767 15.3178 9.92578 13.2812 9.92578C11.2447 9.92578 9.59375 11.5767 9.59375 13.6133C9.59375 15.6498 11.2447 17.3008 13.2812 17.3008Z" fill="white"/>
<path d="M3.87813 17.5036C3.98828 17.7701 4.0356 18.0584 4.01641 18.3462C3.99723 18.6339 3.91206 18.9134 3.7675 19.163L2.56906 21.1542L5.74031 24.3255L7.73156 23.127C7.98111 22.9825 8.26059 22.8973 8.54834 22.8781C8.8361 22.8589 9.12441 22.9063 9.39094 23.0164C9.6571 23.1267 9.89395 23.2973 10.0828 23.5149C10.2716 23.7326 10.4071 23.9911 10.4787 24.2702L11.0319 26.5195H15.5306L16.0838 24.2702C16.1554 23.9911 16.2909 23.7326 16.4797 23.5149C16.6685 23.2973 16.9054 23.1267 17.1716 23.0164C17.4381 22.9063 17.7264 22.8589 18.0142 22.8781C18.3019 22.8973 18.5814 22.9825 18.8309 23.127L20.8222 24.3255L23.9934 21.1542L22.795 19.163C22.6504 18.9134 22.5653 18.6339 22.5461 18.3462C22.5269 18.0584 22.5742 17.7701 22.6844 17.5036C22.7946 17.2374 22.9653 17.0006 23.1829 16.8118C23.4005 16.623 23.6591 16.4874 23.9381 16.4158L26.1875 15.8627V11.3639L23.9381 10.8108C23.6591 10.7392 23.4005 10.6036 23.1829 10.4148C22.9653 10.226 22.7946 9.98913 22.6844 9.72297C22.5742 9.45644 22.5269 9.16813 22.5461 8.88037C22.5653 8.59262 22.6504 8.31314 22.795 8.06359L23.9934 6.07234L20.8222 2.90109L18.8309 4.08109C18.5844 4.23275 18.3054 4.32355 18.0168 4.34599C17.7283 4.36844 17.4385 4.32187 17.1716 4.21016C16.9054 4.0999 16.6685 3.92922 16.4797 3.71161C16.2909 3.49401 16.1554 3.23546 16.0838 2.95641L15.5306 0.707031H11.0319L10.4787 2.95641C10.4071 3.23546 10.2716 3.49401 10.0828 3.71161C9.89395 3.92922 9.6571 4.0999 9.39094 4.21016C9.12395 4.32187 8.83421 4.36844 8.54566 4.34599C8.25712 4.32355 7.97806 4.23275 7.73156 4.08109L5.74031 2.90109L2.56906 6.07234L3.7675 8.06359C3.91206 8.31314 3.99723 8.59262 4.01641 8.88037C4.0356 9.16813 3.98828 9.45644 3.87813 9.72297C3.76787 9.98913 3.59719 10.226 3.37958 10.4148C3.16198 10.6036 2.90342 10.7392 2.62437 10.8108L0.375 11.3639V15.8627L2.62437 16.4158C2.90342 16.4874 3.16198 16.623 3.37958 16.8118C3.59719 17.0006 3.76787 17.2374 3.87813 17.5036ZM13.2812 6.23828C14.7399 6.23828 16.1658 6.67082 17.3786 7.48119C18.5914 8.29157 19.5367 9.44339 20.0949 10.791C20.6531 12.1386 20.7991 13.6215 20.5145 15.0521C20.23 16.4827 19.5276 17.7968 18.4962 18.8282C17.4648 19.8596 16.1507 20.562 14.72 20.8466C13.2894 21.1311 11.8066 20.9851 10.459 20.4269C9.11135 19.8687 7.95954 18.9234 7.14916 17.7106C6.33879 16.4978 5.90625 15.0719 5.90625 13.6133C5.90625 11.6573 6.68326 9.78145 8.06634 8.39837C9.44942 7.01529 11.3253 6.23828 13.2812 6.23828Z" fill="white"/>
<path d="M24.344 30.2063C23.3405 30.2104 22.3471 30.006 21.4267 29.6061C20.5063 29.2062 19.679 28.6195 18.9971 27.8832L18.7575 28.8051C18.6586 29.2048 18.4288 29.56 18.1047 29.8139C17.7806 30.0679 17.3808 30.206 16.969 30.2063H13.724L13.6318 30.3538L16.8215 33.5435L18.8128 32.3451C19.0591 32.2009 19.3355 32.1159 19.6202 32.0967C19.905 32.0775 20.1903 32.1246 20.4537 32.2345C20.7217 32.3418 20.9602 32.5116 21.1494 32.7296C21.3386 32.9477 21.473 33.2078 21.5415 33.4882L22.0946 35.7376H26.5934L27.1465 33.4882C27.215 33.2078 27.3494 32.9477 27.5386 32.7296C27.7278 32.5116 27.9663 32.3418 28.2343 32.2345C28.4978 32.1246 28.7831 32.0775 29.0678 32.0967C29.3526 32.1159 29.629 32.2009 29.8753 32.3451L31.8665 33.5435L35.0562 30.3538L33.8578 28.3626C33.7136 28.1163 33.6286 27.8399 33.6094 27.5551C33.5902 27.2704 33.6373 26.9851 33.7472 26.7216C33.8545 26.4536 34.0243 26.2151 34.2423 26.0259C34.4604 25.8367 34.7204 25.7023 35.0009 25.6338L37.2503 25.0807V20.582L35.0009 20.0288C34.7204 19.9603 34.4604 19.8259 34.2423 19.6367C34.0243 19.4475 33.8545 19.209 33.7472 18.941C33.6373 18.6776 33.5902 18.3923 33.6094 18.1075C33.6286 17.8228 33.7136 17.5464 33.8578 17.3001L35.0562 15.3088L31.8665 12.1191L29.8753 13.3176V17.3001C29.8731 17.4821 29.842 17.6626 29.7831 17.8348C30.7497 18.8913 31.3883 20.2061 31.6212 21.619C31.8541 23.0319 31.6712 24.482 31.0949 25.7929C30.5186 27.1038 29.5736 28.2189 28.3751 29.0024C27.1765 29.786 25.776 30.2043 24.344 30.2063Z" fill="white"/>
<path d="M9.33562 63.4683L4.85531 56.0195H0.375V68.9258H6.60688L9.33562 63.4683Z" fill="white"/>
<path d="M20.6562 81.832C20.6562 80.854 20.2677 79.9161 19.5762 79.2246C18.8847 78.533 17.9467 78.1445 16.9688 78.1445C15.9908 78.1445 15.0528 78.533 14.3613 79.2246C13.6698 79.9161 13.2812 80.854 13.2812 81.832C13.2812 82.321 13.087 82.79 12.7412 83.1358C12.3955 83.4815 11.9265 83.6758 11.4375 83.6758H7.75C7.26101 83.6758 6.79204 83.4815 6.44627 83.1358C6.1005 82.79 5.90625 82.321 5.90625 81.832V72.6133H0.375V87.9348L26.1875 97.6145V83.6758H22.5C22.011 83.6758 21.542 83.4815 21.1963 83.1358C20.8505 82.79 20.6562 82.321 20.6562 81.832Z" fill="white"/>
<path d="M98.0938 81.832C98.0938 82.321 97.8995 82.79 97.5537 83.1358C97.208 83.4815 96.739 83.6758 96.25 83.6758H92.5625C92.0735 83.6758 91.6045 83.4815 91.2588 83.1358C90.913 82.79 90.7188 82.321 90.7188 81.832C90.7188 80.854 90.3302 79.9161 89.6387 79.2246C88.9472 78.533 88.0092 78.1445 87.0312 78.1445C86.0533 78.1445 85.1153 78.533 84.4238 79.2246C83.7323 79.9161 83.3438 80.854 83.3438 81.832C83.3438 82.321 83.1495 82.79 82.8037 83.1358C82.458 83.4815 81.989 83.6758 81.5 83.6758H77.8125V97.6145L103.625 87.9348V72.6133H98.0938V81.832Z" fill="white"/>
<path d="M94.6641 63.4683L97.3928 68.9258H103.625V56.0195H99.1444L94.6641 63.4683Z" fill="white"/>
<path d="M44.2198 94.7377H59.7811L62.0673 85.5742L52.9223 90.8105C52.6396 90.9647 52.3226 91.0456 52.0005 91.0456C51.6783 91.0456 51.3614 90.9647 51.0786 90.8105L41.9336 85.5742L44.2198 94.7377Z" fill="white"/>
<path d="M85.1875 37.582C88.8341 37.582 92.3988 36.5007 95.4308 34.4748C98.4629 32.4488 100.826 29.5693 102.222 26.2003C103.617 22.8313 103.982 19.1241 103.271 15.5476C102.559 11.971 100.803 8.68579 98.2248 6.10726C95.6462 3.52873 92.361 1.77273 88.7845 1.06131C85.208 0.349896 81.5008 0.71502 78.1318 2.11051C74.7628 3.506 71.8832 5.86918 69.8573 8.90121C67.8313 11.9332 66.75 15.4979 66.75 19.1445C66.7578 24.0321 68.7028 28.7172 72.1588 32.1732C75.6148 35.6292 80.3 37.5742 85.1875 37.582ZM87.0312 11.7695H90.7188V17.3008H92.5625V11.7695H96.25V26.5195H92.5625V20.9883H88.875C88.386 20.9883 87.917 20.794 87.5713 20.4483C87.2255 20.1025 87.0312 19.6335 87.0312 19.1445V11.7695ZM74.125 19.1445C74.125 18.6555 74.3193 18.1866 74.665 17.8408C75.0108 17.495 75.4798 17.3008 75.9688 17.3008H79.6562V15.457H74.125V11.7695H81.5C81.989 11.7695 82.458 11.9638 82.8037 12.3096C83.1495 12.6553 83.3438 13.1243 83.3438 13.6133V19.1445C83.3438 19.6335 83.1495 20.1025 82.8037 20.4483C82.458 20.794 81.989 20.9883 81.5 20.9883H77.8125V22.832H83.3438V26.5195H75.9688C75.4798 26.5195 75.0108 26.3253 74.665 25.9795C74.3193 25.6337 74.125 25.1648 74.125 24.6758V19.1445Z" fill="white"/>
<path d="M63.0072 97.0245C62.9084 97.4243 62.6786 97.7794 62.3545 98.0334C62.0303 98.2873 61.6305 98.4255 61.2188 98.4258H42.7812C42.3695 98.4255 41.9697 98.2873 41.6456 98.0334C41.3214 97.7794 41.0916 97.4243 40.9928 97.0245L37.6556 83.6758H29.875V103.957H74.125V83.6758H66.3444L63.0072 97.0245Z" fill="white"/>
<path d="M64.9062 54.1758V59.707H68.5938C69.0827 59.707 69.5517 59.5128 69.8975 59.167C70.2432 58.8212 70.4375 58.3523 70.4375 57.8633V56.0195C70.4375 55.5305 70.2432 55.0616 69.8975 54.7158C69.5517 54.37 69.0827 54.1758 68.5938 54.1758H64.9062Z" fill="white"/>
<path d="M33.5625 56.0195V57.8633C33.5625 58.3523 33.7568 58.8212 34.1025 59.167C34.4483 59.5128 34.9173 59.707 35.4062 59.707H39.0938V54.1758H35.4062C34.9173 54.1758 34.4483 54.37 34.1025 54.7158C33.7568 55.0616 33.5625 55.5305 33.5625 56.0195Z" fill="white"/>
<path d="M87.0312 57.8633V44.957H83.3438V56.0195H74.125V59.707H85.1875C85.6765 59.707 86.1455 59.5128 86.4912 59.167C86.837 58.8212 87.0312 58.3523 87.0312 57.8633Z" fill="white"/>
<path d="M16.9688 43.1133V57.8633C16.9688 58.3523 17.163 58.8212 17.5088 59.167C17.8545 59.5128 18.3235 59.707 18.8125 59.707H29.875V56.0195H20.6562V43.1133H16.9688Z" fill="white"/>
</svg>

<svg xmlns="http://www.w3.org/2000/svg" width="104" height="104" fill="none" viewBox="0 0 104 104"><path fill="#fff" d="m52 87.086 9.55-5.457-5.125-3.854a1.87 1.87 0 0 1-.738-1.475v-4.222a13 13 0 0 1-7.375 0V76.3a1.87 1.87 0 0 1-.737 1.475l-5.126 3.854zM37.25 47.889l1.844 1.843v-1.087a1.8 1.8 0 0 1 1.014-1.641l7.375-3.688a1.8 1.8 0 0 1 1.272-.147l14.75 3.687a1.844 1.844 0 0 1 1.401 1.788v1.088l1.844-1.843V46.8a9.22 9.22 0 0 0-9.219-9.219H46.47a9.22 9.22 0 0 0-9.219 9.219z"/><path fill="#fff" d="M61.219 59.708v-9.625l-12.685-3.17-5.753 2.875v9.92a9.219 9.219 0 0 0 18.438 0m-7.375-7.375h3.687v3.687h-3.687zm-3.688 3.687H46.47v-3.687h3.687zM13.281 17.3a3.688 3.688 0 1 0 0-7.374 3.688 3.688 0 0 0 0 7.375"/><path fill="#fff" d="M3.878 17.504a1.88 1.88 0 0 1-.11 1.659l-1.199 1.991 3.171 3.172 1.992-1.199a1.88 1.88 0 0 1 1.659-.11 1.86 1.86 0 0 1 1.088 1.253l.553 2.25h4.499l.553-2.25a1.86 1.86 0 0 1 1.93-1.392 1.9 1.9 0 0 1 .817.249l1.991 1.199 3.171-3.172-1.198-1.991a1.88 1.88 0 0 1-.11-1.66 1.86 1.86 0 0 1 1.253-1.087l2.25-.553v-4.5l-2.25-.552a1.86 1.86 0 0 1-1.392-1.93c.02-.288.104-.568.249-.817l1.198-1.992-3.17-3.17-1.992 1.18a1.82 1.82 0 0 1-1.66.128 1.86 1.86 0 0 1-1.087-1.254L15.53.707h-4.5l-.552 2.25a1.856 1.856 0 0 1-1.933 1.389 1.8 1.8 0 0 1-.814-.265L5.74 2.901 2.57 6.072l1.198 1.992a1.88 1.88 0 0 1 .11 1.659 1.86 1.86 0 0 1-1.254 1.088l-2.249.553v4.499l2.25.553a1.86 1.86 0 0 1 1.253 1.088m9.403-11.266a7.375 7.375 0 1 1 0 14.75 7.375 7.375 0 0 1 0-14.75"/><path fill="#fff" d="M24.344 30.206a7.25 7.25 0 0 1-5.347-2.323l-.24.922a1.844 1.844 0 0 1-1.788 1.401h-3.245l-.092.148 3.19 3.19 1.99-1.199a1.84 1.84 0 0 1 1.642-.11 1.81 1.81 0 0 1 1.087 1.253l.554 2.25h4.498l.553-2.25a1.82 1.82 0 0 1 1.088-1.254 1.84 1.84 0 0 1 1.641.111l1.991 1.199 3.19-3.19-1.198-1.991a1.84 1.84 0 0 1-.11-1.641A1.81 1.81 0 0 1 35 25.634l2.25-.553v-4.499L35 20.029a1.81 1.81 0 0 1-1.254-1.088 1.84 1.84 0 0 1 .11-1.64l1.2-1.992-3.19-3.19-1.992 1.199V17.3a1.7 1.7 0 0 1-.092.535 7.386 7.386 0 0 1-5.439 12.371M9.336 63.468l-4.48-7.449H.374v12.907h6.232zm11.32 18.364a3.687 3.687 0 1 0-7.375 0 1.844 1.844 0 0 1-1.844 1.844H7.75a1.844 1.844 0 0 1-1.844-1.844v-9.219H.375v15.322l25.813 9.68v-13.94H22.5a1.844 1.844 0 0 1-1.844-1.843m77.438 0a1.844 1.844 0 0 1-1.844 1.844h-3.687a1.844 1.844 0 0 1-1.844-1.844 3.687 3.687 0 0 0-7.375 0 1.844 1.844 0 0 1-1.844 1.844h-3.687v13.939l25.812-9.68V72.613h-5.531zm-3.43-18.364 2.729 5.458h6.232V56.019h-4.48zM44.22 94.738h15.56l2.286-9.164-9.145 5.237a1.93 1.93 0 0 1-1.843 0l-9.145-5.237zm40.968-57.156A18.438 18.438 0 1 0 66.75 19.145a18.467 18.467 0 0 0 18.438 18.437M87.03 11.77h3.688v5.53h1.844v-5.53h3.687v14.75h-3.687v-5.532h-3.688a1.844 1.844 0 0 1-1.844-1.843zm-12.906 7.375a1.844 1.844 0 0 1 1.844-1.844h3.687v-1.844h-5.531V11.77H81.5a1.843 1.843 0 0 1 1.844 1.843v5.532a1.844 1.844 0 0 1-1.844 1.843h-3.687v1.844h5.53v3.688H75.97a1.844 1.844 0 0 1-1.844-1.844z"/><path fill="#fff" d="M63.007 97.025a1.844 1.844 0 0 1-1.788 1.4H42.78a1.844 1.844 0 0 1-1.788-1.4l-3.337-13.35h-7.781v20.282h44.25V83.676h-7.78zm1.899-42.849v5.531h3.688a1.844 1.844 0 0 0 1.844-1.844V56.02a1.844 1.844 0 0 0-1.844-1.844zM33.563 56.02v1.843a1.844 1.844 0 0 0 1.843 1.844h3.688v-5.531h-3.688a1.844 1.844 0 0 0-1.843 1.843m53.468 1.844V44.957h-3.687V56.02h-9.219v3.687h11.063a1.843 1.843 0 0 0 1.843-1.844m-70.062-14.75v14.75a1.844 1.844 0 0 0 1.843 1.844h11.063V56.02h-9.219V43.113z"/></svg>
